icons/svg/emoji-nature_16.svg

<?xml version="1.0" encoding="UTF-8"?>
<svg width="16px" height="16px" viewBox="0 0 16 16" version="1.1" xmlns="http://www.w3.org/2000/svg" xmlns:xlink="http://www.w3.org/1999/xlink">
    <!-- Generator: Sketch 59.1 (86144) - https://sketch.com -->
    <title>emoji-nature_16</title>
    <desc>Created with Sketch.</desc>
    <g id="New-Icon" stroke="none" stroke-width="1" fill="none" fill-rule="evenodd">
        <g id="emoji-nature_16" fill="#171B1F">
            <path d="M13.5169,6.6695 C12.7839,7.4265 11.5739,7.5095 10.7359,6.9235 L12.7939,4.8555 C12.9889,4.6605 12.9889,4.3435 12.7939,4.1485 C12.5999,3.9535 12.2849,3.9535 12.0909,4.1485 L10.0799,6.1685 C9.6169,5.3035 9.7319,4.1925 10.4449,3.4575 C11.6799,2.1805 13.6859,2.0035 14.7059,2.0035 C14.7859,2.0035 14.8599,2.0045 14.9279,2.0065 C14.9529,2.9525 14.8659,5.2765 13.5169,6.6695 M3.9549,7.3325 C3.3729,7.3325 2.8249,7.0965 2.4109,6.6695 C1.0669,5.2805 0.9769,2.9535 1.0009,2.0055 C1.9209,1.9805 4.1449,2.0755 5.4829,3.4575 C6.1949,4.1925 6.3109,5.3035 5.8469,6.1685 L3.8369,4.1485 C3.6419,3.9535 3.3279,3.9535 3.1329,4.1485 C2.9389,4.3435 2.9389,4.6605 3.1329,4.8555 L5.1939,6.9265 C4.8329,7.1885 4.4059,7.3325 3.9549,7.3325 M15.8929,1.4805 C15.8689,1.2465 15.6859,1.0625 15.4549,1.0355 C15.3049,1.0185 11.7769,0.6475 9.7309,2.7595 C8.6409,3.8855 8.5169,5.6325 9.3519,6.9005 L7.9639,8.2945 L6.5759,6.9005 C7.4119,5.6325 7.2869,3.8855 6.1959,2.7595 C4.1509,0.6475 0.6219,1.0185 0.4729,1.0355 C0.2419,1.0625 0.0589,1.2465 0.0349,1.4805 C0.0179,1.6335 -0.3411,5.2615 1.6979,7.3665 C2.2999,7.9895 3.1019,8.3325 3.9549,8.3325 C4.6709,8.3325 5.3419,8.0785 5.8969,7.6325 L7.4659,9.2095 L7.4659,14.5025 C7.4659,14.7785 7.6889,15.0025 7.9639,15.0025 C8.2389,15.0025 8.4609,14.7785 8.4609,14.5025 L8.4609,9.2095 L10.0309,7.6315 C10.5849,8.0785 11.2569,8.3325 11.9729,8.3325 C12.8259,8.3325 13.6279,7.9895 14.2299,7.3665 C16.2689,5.2615 15.9099,1.6335 15.8929,1.4805" id="fill"></path>
        </g>
    </g>
</svg>

<svg width="16" height="16" xmlns="http://www.w3.org/2000/svg"><path d="M13.517 6.67c-.733.756-1.943.84-2.781.253l2.058-2.067a.5.5 0 000-.707.496.496 0 00-.703 0l-2.011 2.02c-.463-.865-.348-1.976.365-2.711 1.235-1.278 3.24-1.455 4.26-1.455.08 0 .155.002.223.003.025.947-.062 3.27-1.411 4.664m-9.562.662c-.582 0-1.13-.236-1.544-.662C1.067 5.28.977 2.954 1 2.006c.92-.025 3.144.07 4.482 1.452.712.734.828 1.845.364 2.71l-2.01-2.02a.497.497 0 00-.704 0 .502.502 0 000 .708l2.06 2.07a2.098 2.098 0 01-1.238.406m11.938-5.851a.499.499 0 00-.438-.446c-.15-.016-3.678-.387-5.724 1.725-1.09 1.126-1.214 2.873-.38 4.14L7.965 8.294 6.576 6.9c.836-1.268.71-3.015-.38-4.14C4.15.647.622 1.018.473 1.036a.499.499 0 00-.438.444c-.017.153-.376 3.781 1.663 5.886a3.118 3.118 0 002.257.966c.716 0 1.387-.254 1.942-.7L7.466 9.21v5.292a.498.498 0 10.995 0V9.21l1.57-1.577a3.078 3.078 0 001.942.7c.853 0 1.655-.343 2.257-.966 2.039-2.104 1.68-5.732 1.663-5.885" fill="#171B1F" fill-rule="evenodd"/></svg>
